Newaita-dark/actions/32/preferences-activities.svg

<?xml version="1.0" encoding="UTF-8"?>
<svg xmlns="http://www.w3.org/2000/svg" xmlns:xlink="http://www.w3.org/1999/xlink" width="32pt" height="32pt" viewBox="0 0 32 32" version="1.1">
<g id="surface1">
<path style=" stroke:none;fill-rule:nonzero;fill:rgb(25.882354%,64.705884%,96.078432%);fill-opacity:1;" d="M 5.292969 12.15625 C 3.09375 12.15625 1.324219 13.925781 1.324219 16.125 C 1.324219 18.324219 3.09375 20.09375 5.292969 20.09375 C 7.492188 20.09375 9.261719 18.324219 9.261719 16.125 C 9.261719 13.925781 7.492188 12.15625 5.292969 12.15625 Z M 5.292969 14.140625 C 6.390625 14.140625 7.277344 15.027344 7.277344 16.125 C 7.277344 17.226562 6.390625 18.109375 5.292969 18.109375 C 4.191406 18.109375 3.308594 17.226562 3.308594 16.125 C 3.308594 15.027344 4.191406 14.140625 5.292969 14.140625 Z M 5.292969 14.140625 "/>
<path style=" stroke:none;fill-rule:nonzero;fill:rgb(40.000001%,73.333335%,41.568628%);fill-opacity:1;" d="M 26.460938 12.15625 C 24.261719 12.15625 22.492188 13.925781 22.492188 16.125 C 22.492188 18.324219 24.261719 20.09375 26.460938 20.09375 C 28.660156 20.09375 30.429688 18.324219 30.429688 16.125 C 30.429688 13.925781 28.660156 12.15625 26.460938 12.15625 Z M 26.460938 14.140625 C 27.558594 14.140625 28.445312 15.027344 28.445312 16.125 C 28.445312 17.226562 27.558594 18.109375 26.460938 18.109375 C 25.363281 18.109375 24.476562 17.226562 24.476562 16.125 C 24.476562 15.027344 25.363281 14.140625 26.460938 14.140625 Z M 26.460938 14.140625 "/>
<path style=" stroke:none;fill-rule:nonzero;fill:rgb(14.901961%,77.64706%,85.490197%);fill-opacity:1;" d="M 15.875 12.15625 C 13.675781 12.15625 11.90625 13.925781 11.90625 16.125 C 11.90625 18.324219 13.675781 20.09375 15.875 20.09375 C 18.074219 20.09375 19.84375 18.324219 19.84375 16.125 C 19.84375 13.925781 18.074219 12.15625 15.875 12.15625 Z M 15.875 14.140625 C 16.976562 14.140625 17.859375 15.027344 17.859375 16.125 C 17.859375 17.226562 16.976562 18.109375 15.875 18.109375 C 14.777344 18.109375 13.890625 17.226562 13.890625 16.125 C 13.890625 15.027344 14.777344 14.140625 15.875 14.140625 Z M 15.875 14.140625 "/>
</g>
</svg>

<svg xmlns="http://www.w3.org/2000/svg" width="32pt" height="32pt" viewBox="0 0 32 32"><path d="M5.293 12.156a3.96 3.96 0 0 0-3.969 3.969 3.96 3.96 0 0 0 3.969 3.969 3.96 3.96 0 0 0 3.969-3.969 3.96 3.96 0 0 0-3.969-3.969zm0 1.985c1.098 0 1.984.886 1.984 1.984a1.98 1.98 0 0 1-1.984 1.984 1.977 1.977 0 0 1-1.984-1.984 1.98 1.98 0 0 1 1.984-1.984zm0 0" fill="#42a5f5"/><path d="M26.46 12.156a3.96 3.96 0 0 0-3.968 3.969 3.96 3.96 0 0 0 3.969 3.969 3.96 3.96 0 0 0 3.969-3.969 3.96 3.96 0 0 0-3.97-3.969zm0 1.985c1.099 0 1.985.886 1.985 1.984a1.98 1.98 0 0 1-1.984 1.984 1.98 1.98 0 0 1-1.984-1.984c0-1.098.886-1.984 1.984-1.984zm0 0" fill="#66bb6a"/><path d="M15.875 12.156a3.96 3.96 0 0 0-3.969 3.969 3.96 3.96 0 0 0 3.969 3.969 3.96 3.96 0 0 0 3.969-3.969 3.96 3.96 0 0 0-3.969-3.969zm0 1.985a1.98 1.98 0 0 1 1.984 1.984 1.977 1.977 0 0 1-1.984 1.984 1.98 1.98 0 0 1-1.984-1.984c0-1.098.886-1.984 1.984-1.984zm0 0" fill="#26c6da"/></svg>
